src/icon/entity/chat-photo/icon_chat-photo_xl_white.svg

<svg xmlns="http://www.w3.org/2000/svg" width="48" height="48" viewBox="0 0 48 48"><g fill="none" fill-rule="evenodd"><polygon points="0 0 48 0 48 48 0 48"/><path fill="#FFF" fill-rule="nonzero" d="M11,14 C9.8954305,14 9,14.8954305 9,16 L9,39 C9,40.1045695 9.8954305,41 11,41 L43,41 C44.1045695,41 45,40.1045695 45,39 L45,16 C45,14.8954305 44.1045695,14 43,14 L11,14 Z M11,13 L43,13 C44.6568542,13 46,14.3431458 46,16 L46,39 C46,40.6568542 44.6568542,42 43,42 L11,42 C9.34314575,42 8,40.6568542 8,39 L8,16 C8,14.3431458 9.34314575,13 11,13 Z"/><circle cx="16" cy="21" r="3" fill="#FFF" fill-rule="nonzero" opacity=".3"/><path fill="#FFF" fill-rule="nonzero" d="M20.8702856,37 L13.896199,37 C13.3439142,37 12.896199,36.5522847 12.896199,36 C12.896199,35.7451705 12.9934851,35.4999541 13.1681873,35.3144353 L19.2095302,28.8990409 C19.7774707,28.2959363 20.7267902,28.2674301 21.3298948,28.8353705 C21.3517507,28.855952 21.3729837,28.877185 21.3935652,28.8990409 L24.5223413,32.221536 L30.2949414,24.6684852 C30.7979901,24.0102804 31.7393721,23.8845016 32.3975768,24.3875504 C32.5032641,24.4683244 32.5977375,24.5627978 32.6785116,24.6684852 L40.8748005,35.3927665 C41.2101664,35.8315696 41.1263138,36.4591576 40.6875107,36.7945234 C40.5131324,36.9277962 40.2997525,37 40.0802771,37 L20.8702856,37 Z" opacity=".3"/><path fill="#FFF" fill-rule="nonzero" d="M40.6666667,13 L40.6666667,9 C40.6666667,6.790861 38.8758057,5 36.6666667,5 L6,5 C3.790861,5 2,6.790861 2,9 L2,30.3333333 C2,32.5424723 3.790861,34.3333333 6,34.3333333 L8.66666667,34.3333333 L8.66666667,33.3333333 L6,33.3333333 C4.34314575,33.3333333 3,31.9901876 3,30.3333333 L3,9 C3,7.34314575 4.34314575,6 6,6 L36.6666667,6 C38.3235209,6 39.6666667,7.34314575 39.6666667,9 L39.6666667,13 L40.6666667,13 Z M40.6666667,9 C40.6666667,6.790861 38.8758057,5 36.6666667,5 L6,5 C3.790861,5 2,6.790861 2,9 L2,30.3333333 C2,32.5424723 3.790861,34.3333333 6,34.3333333 L8.66666667,34.3333333 L8.66666667,33.3333333 L6,33.3333333 C4.34314575,33.3333333 3,31.9901876 3,30.3333333 L3,9 C3,7.34314575 4.34314575,6 6,6 L36.6666667,6 C38.3235209,6 39.6666667,7.34314575 39.6666667,9 L39.6666667,13 L40.6666667,13 L40.6666667,9 Z"/></g></svg>

<svg xmlns="http://www.w3.org/2000/svg" width="48" height="48" viewBox="0 0 48 48"><g fill="none" fill-rule="evenodd"><path d="M0 0h48v48H0z"/><path fill="#FFF" fill-rule="nonzero" d="M11 14a2 2 0 0 0-2 2v23a2 2 0 0 0 2 2h32a2 2 0 0 0 2-2V16a2 2 0 0 0-2-2H11zm0-1h32a3 3 0 0 1 3 3v23a3 3 0 0 1-3 3H11a3 3 0 0 1-3-3V16a3 3 0 0 1 3-3z"/><circle cx="16" cy="21" r="3" fill="#FFF" fill-rule="nonzero" opacity=".3"/><path fill="#FFF" fill-rule="nonzero" d="M20.87 37h-6.974a1 1 0 0 1-.728-1.686L19.21 28.9a1.5 1.5 0 0 1 2.184 0l3.128 3.323 5.773-7.554a1.5 1.5 0 0 1 2.384 0l8.196 10.725A1 1 0 0 1 40.08 37H20.87z" opacity=".3"/><path fill="#FFF" fill-rule="nonzero" d="M40.667 13V9a4 4 0 0 0-4-4H6a4 4 0 0 0-4 4v21.333a4 4 0 0 0 4 4h2.667v-1H6a3 3 0 0 1-3-3V9a3 3 0 0 1 3-3h30.667a3 3 0 0 1 3 3v4h1zm0-4a4 4 0 0 0-4-4H6a4 4 0 0 0-4 4v21.333a4 4 0 0 0 4 4h2.667v-1H6a3 3 0 0 1-3-3V9a3 3 0 0 1 3-3h30.667a3 3 0 0 1 3 3v4h1V9z"/></g></svg>
